wilib/img/svg/folha.svg

<svg xmlns="http://www.w3.org/2000/svg" xmlns:xlink="http://www.w3.org/1999/xlink" preserveAspectRatio="none" width="42" height="55" viewBox="0 0 42 55"><defs><path fill="#FFF" d="M4.2.1l-4.1 4v50.25h41.55V.1H4.2z" id="a"/><path fill="#8CA8B8" d="M4.15 0L0 4.05V54.5h41.75V0H4.15M.2 4.15L4.25.2h37.3v54.05H.2V4.15z" id="b"/><path fill="#CCC" d="M.2 4.35h4.2V.2h-.2l-4 3.9v.25z" id="c"/><path fill="#8CA8B8" d="M.1 4.1h4.05V0L.1 4.1z" id="d"/><path id="e" stroke="#8CA8B8" stroke-opacity=".6" stroke-linejoin="round" stroke-linecap="round" fill="none" d="M4.15 9.8H36.9"/><path id="f" stroke="#8CA8B8" stroke-opacity=".6" stroke-linejoin="round" stroke-linecap="round" fill="none" d="M4.15 15.6H36.9"/><path id="g" stroke="#8CA8B8" stroke-opacity=".6" stroke-linejoin="round" stroke-linecap="round" fill="none" d="M4.15 18.8H36.9"/><path id="h" stroke="#8CA8B8" stroke-opacity=".6" stroke-linejoin="round" stroke-linecap="round" fill="none" d="M4.15 22H36.9"/><path id="i" stroke="#8CA8B8" stroke-opacity=".6" stroke-linejoin="round" stroke-linecap="round" fill="none" d="M4.15 25.2H36.9"/><path id="j" stroke="#8CA8B8" stroke-opacity=".6" stroke-linejoin="round" stroke-linecap="round" fill="none" d="M4.15 28.4H36.9"/><path id="k" stroke="#8CA8B8" stroke-opacity=".6" stroke-linejoin="round" stroke-linecap="round" fill="none" d="M4.15 31.6H36.9"/><path id="l" stroke="#8CA8B8" stroke-opacity=".6" stroke-linejoin="round" stroke-linecap="round" fill="none" d="M4.15 34.8H36.9"/><path id="m" stroke="#8CA8B8" stroke-opacity=".6" stroke-linejoin="round" stroke-linecap="round" fill="none" d="M4.15 38H36.9"/><path id="n" stroke="#8CA8B8" stroke-opacity=".6" stroke-linejoin="round" stroke-linecap="round" fill="none" d="M4.15 41.2H36.9"/><path id="o" stroke="#8CA8B8" stroke-opacity=".6" stroke-linejoin="round" stroke-linecap="round" fill="none" d="M4.15 44.4H36.9"/><path id="p" stroke="#8CA8B8" stroke-opacity=".6" stroke-linejoin="round" stroke-linecap="round" fill="none" d="M4.15 47.6H36.9"/></defs><use xlink:href="#a"/><use xlink:href="#b"/><use xlink:href="#c"/><use xlink:href="#d"/><use xlink:href="#e"/><use xlink:href="#f"/><use xlink:href="#g"/><use xlink:href="#h"/><use xlink:href="#i"/><use xlink:href="#j"/><use xlink:href="#k"/><use xlink:href="#l"/><use xlink:href="#m"/><use xlink:href="#n"/><use xlink:href="#o"/><use xlink:href="#p"/></svg>

<svg xmlns="http://www.w3.org/2000/svg" version="1.1" xmlns:xlink="http://www.w3.org/1999/xlink" preserveAspectRatio="none" x="0px" y="0px" width="42px" height="55px" viewBox="0 0 42 55">
<defs>
<g id="Layer0_0_MEMBER_0_MEMBER_0_FILL">
<path fill="#FFFFFF" stroke="none" d="
M 4.2 0.1
L 0.1 4.1 0.1 54.35 41.65 54.35 41.65 0.1 4.2 0.1 Z"/>
</g>

<g id="Layer0_0_MEMBER_0_MEMBER_1_FILL">
<path fill="#8CA8B8" stroke="none" d="
M 4.15 0
L 0 4.05 0 54.5 41.75 54.5 41.75 0 4.15 0
M 0.2 4.15
L 4.25 0.2 41.55 0.2 41.55 54.25 0.2 54.25 0.2 4.15 Z"/>
</g>

<g id="Layer0_0_MEMBER_0_MEMBER_2_FILL">
<path fill="#CCCCCC" stroke="none" d="
M 0.2 4.35
L 4.4 4.35 4.4 0.2 4.2 0.2 0.2 4.1 0.2 4.35 Z"/>
</g>

<g id="Layer0_0_MEMBER_0_MEMBER_3_FILL">
<path fill="#8CA8B8" stroke="none" d="
M 0.1 4.1
L 4.15 4.1 4.15 0 0.1 4.1 Z"/>
</g>

<path id="Layer0_0_MEMBER_0_MEMBER_4_MEMBER_0_1_STROKES" stroke="#8CA8B8" stroke-opacity="0.6" stroke-width="1" stroke-linejoin="round" stroke-linecap="round" fill="none" d="
M 4.15 9.8
L 36.9 9.8"/>

<path id="Layer0_0_MEMBER_0_MEMBER_4_MEMBER_1_1_STROKES" stroke="#8CA8B8" stroke-opacity="0.6" stroke-width="1" stroke-linejoin="round" stroke-linecap="round" fill="none" d="
M 4.15 15.6
L 36.9 15.6"/>

<path id="Layer0_0_MEMBER_0_MEMBER_4_MEMBER_2_1_STROKES" stroke="#8CA8B8" stroke-opacity="0.6" stroke-width="1" stroke-linejoin="round" stroke-linecap="round" fill="none" d="
M 4.15 18.8
L 36.9 18.8"/>

<path id="Layer0_0_MEMBER_0_MEMBER_4_MEMBER_3_1_STROKES" stroke="#8CA8B8" stroke-opacity="0.6" stroke-width="1" stroke-linejoin="round" stroke-linecap="round" fill="none" d="
M 4.15 22
L 36.9 22"/>

<path id="Layer0_0_MEMBER_0_MEMBER_4_MEMBER_4_1_STROKES" stroke="#8CA8B8" stroke-opacity="0.6" stroke-width="1" stroke-linejoin="round" stroke-linecap="round" fill="none" d="
M 4.15 25.2
L 36.9 25.2"/>

<path id="Layer0_0_MEMBER_0_MEMBER_4_MEMBER_5_1_STROKES" stroke="#8CA8B8" stroke-opacity="0.6" stroke-width="1" stroke-linejoin="round" stroke-linecap="round" fill="none" d="
M 4.15 28.4
L 36.9 28.4"/>

<path id="Layer0_0_MEMBER_0_MEMBER_4_MEMBER_6_1_STROKES" stroke="#8CA8B8" stroke-opacity="0.6" stroke-width="1" stroke-linejoin="round" stroke-linecap="round" fill="none" d="
M 4.15 31.6
L 36.9 31.6"/>

<path id="Layer0_0_MEMBER_0_MEMBER_4_MEMBER_7_1_STROKES" stroke="#8CA8B8" stroke-opacity="0.6" stroke-width="1" stroke-linejoin="round" stroke-linecap="round" fill="none" d="
M 4.15 34.8
L 36.9 34.8"/>

<path id="Layer0_0_MEMBER_0_MEMBER_4_MEMBER_8_1_STROKES" stroke="#8CA8B8" stroke-opacity="0.6" stroke-width="1" stroke-linejoin="round" stroke-linecap="round" fill="none" d="
M 4.15 38
L 36.9 38"/>

<path id="Layer0_0_MEMBER_0_MEMBER_4_MEMBER_9_1_STROKES" stroke="#8CA8B8" stroke-opacity="0.6" stroke-width="1" stroke-linejoin="round" stroke-linecap="round" fill="none" d="
M 4.15 41.2
L 36.9 41.2"/>

<path id="Layer0_0_MEMBER_0_MEMBER_4_MEMBER_10_1_STROKES" stroke="#8CA8B8" stroke-opacity="0.6" stroke-width="1" stroke-linejoin="round" stroke-linecap="round" fill="none" d="
M 4.15 44.4
L 36.9 44.4"/>

<path id="Layer0_0_MEMBER_0_MEMBER_4_MEMBER_11_1_STROKES" stroke="#8CA8B8" stroke-opacity="0.6" stroke-width="1" stroke-linejoin="round" stroke-linecap="round" fill="none" d="
M 4.15 47.6
L 36.9 47.6"/>
</defs>

<g transform="matrix( 1, 0, 0, 1, 0,0) ">
<use xlink:href="#Layer0_0_MEMBER_0_MEMBER_0_FILL"/>
</g>

<g transform="matrix( 1, 0, 0, 1, 0,0) ">
<use xlink:href="#Layer0_0_MEMBER_0_MEMBER_1_FILL"/>
</g>

<g transform="matrix( 1, 0, 0, 1, 0,0) ">
<use xlink:href="#Layer0_0_MEMBER_0_MEMBER_2_FILL"/>
</g>

<g transform="matrix( 1, 0, 0, 1, 0,0) ">
<use xlink:href="#Layer0_0_MEMBER_0_MEMBER_3_FILL"/>
</g>

<g transform="matrix( 1, 0, 0, 1, 0,0) ">
<use xlink:href="#Layer0_0_MEMBER_0_MEMBER_4_MEMBER_0_1_STROKES"/>
</g>

<g transform="matrix( 1, 0, 0, 1, 0,0) ">
<use xlink:href="#Layer0_0_MEMBER_0_MEMBER_4_MEMBER_1_1_STROKES"/>
</g>

<g transform="matrix( 1, 0, 0, 1, 0,0) ">
<use xlink:href="#Layer0_0_MEMBER_0_MEMBER_4_MEMBER_2_1_STROKES"/>
</g>

<g transform="matrix( 1, 0, 0, 1, 0,0) ">
<use xlink:href="#Layer0_0_MEMBER_0_MEMBER_4_MEMBER_3_1_STROKES"/>
</g>

<g transform="matrix( 1, 0, 0, 1, 0,0) ">
<use xlink:href="#Layer0_0_MEMBER_0_MEMBER_4_MEMBER_4_1_STROKES"/>
</g>

<g transform="matrix( 1, 0, 0, 1, 0,0) ">
<use xlink:href="#Layer0_0_MEMBER_0_MEMBER_4_MEMBER_5_1_STROKES"/>
</g>

<g transform="matrix( 1, 0, 0, 1, 0,0) ">
<use xlink:href="#Layer0_0_MEMBER_0_MEMBER_4_MEMBER_6_1_STROKES"/>
</g>

<g transform="matrix( 1, 0, 0, 1, 0,0) ">
<use xlink:href="#Layer0_0_MEMBER_0_MEMBER_4_MEMBER_7_1_STROKES"/>
</g>

<g transform="matrix( 1, 0, 0, 1, 0,0) ">
<use xlink:href="#Layer0_0_MEMBER_0_MEMBER_4_MEMBER_8_1_STROKES"/>
</g>

<g transform="matrix( 1, 0, 0, 1, 0,0) ">
<use xlink:href="#Layer0_0_MEMBER_0_MEMBER_4_MEMBER_9_1_STROKES"/>
</g>

<g transform="matrix( 1, 0, 0, 1, 0,0) ">
<use xlink:href="#Layer0_0_MEMBER_0_MEMBER_4_MEMBER_10_1_STROKES"/>
</g>

<g transform="matrix( 1, 0, 0, 1, 0,0) ">
<use xlink:href="#Layer0_0_MEMBER_0_MEMBER_4_MEMBER_11_1_STROKES"/>
</g>
</svg>
